X: 18681
T: I'm A Little Dutch Girl
R: mazurka
M: 3/4
K: Gmajor
|:Bc|d2 de dc|B2 GB GB|A2 DA DA|B2 GB GB|
d2 de dc|B/c/d gB DB|A2 DA (3FAF|G4:|
|:Bc|dG Bd ef|g2 g2 gf|e2 d2 B2|e2 d2 B2|
d2 dB ef|g2 g2 gf|e2 da (3faf|g2 g2:|

